X:1
T:Pomp and Circumstance March No. 1 - Trio
T:Pomp and Circumstance March No. 1 - Trio
T:For Organ Solo
T:Sir Edward Elgar
C:Sir Edward Elgar
%%score { 1 | 2 | 3 }
L:1/8
Q:1/4=80
M:2/4
K:G
V:1 treble nm="Organ" snm="Org."
V:2 bass 
V:3 bass 
V:1
"^Largamente"!p!"^legato e cantabile" G4 | (FG A2) | (E4 | D4) | C4 | (B,C D2) | A,4- | A,3 z | %8
 B,4 |"_cresc." (^C D2 E) |!mp! A4 | D4 | G4- |"_dim." G F2 E |!p! D4- | D3 z | G4 | (FG A2) | E4 | %19
 D4 | C4 | (B,C D2) | A,4- | A,4 | B,4 |"_cresc." (^C D2 E) |!mp! A4 |"_cresc." .D4 | c4 | %29
!f! (c B2 A) | B4- | B4 | E4 | (F G2 A) | D4 | G4 |"_dim." G,4 | (C B,2 A,) |"_cresc." G,4- | %39
 G,4 ||!f! ([Gg]4 | [Ff][Gg] [Aa]2 | [Ee]4 | [Dd]4) | ([Cc]4 | [B,B][Cc] [Dd]2 | [A,A]4- | %47
 [A,A]3) z | ([B,B]4 |"_cresc." [^C^c] [Dd]2 [Ee] | [Aa]4 | [Dd]4) | ([Gg]4 | [Gg] [Ff]2 [Ee] | %54
 [Dd]4- | [Dd]4) | ([Gg]4 | [Ff][Gg] [Aa]2 | [Ee]4 | [Dd]4) | ([Cc]4 | [B,B][Cc] [Dd]2 | [A,A]4- | %63
 [A,A]3) z | [B,B]4 | ([^C^c] [Dd]2 [Ee]) | ([Aa]4 | [Dd]4) | [cc']4 | %69
 !tenuto![cc'] !tenuto![Bb]2 !tenuto![Aa] | [Bb]4- | [Bb]4 | [Ee]4 | ([Ff] [Gg]2 [Aa]) | [Dd]4 | %75
 [Gg]4 | [G,G]4 | ([Cc] [B,B]2) [A,A] | [G,G]4- | [G,G]3 z |] %80
V:2
!pp! [D,G,B,D]2 [D,G,B,D]2 | [D,F,CD]2 [D,F,CD]2 | [G,B,E]2 [G,B,E]2 | [G,B,D]2 [G,D]2 | %4
 [G,CE]2 [G,CE]2 | [G,B,D]2 [G,B,D]2 | [G,A,^C]2 [G,A,C]2 | [F,A,D]2 [F,A,D]2 | [G,B,D]2 [G,B,D]2 | %9
 [E,A,^C]2 [E,A,C]2 |!p! [D,A,D]2 [D,A,D]2 | [F,B,D]2 [F,B,D]2 | [G,B,D]2 [G,B,D]2 | %13
 [G,A,^C]2 [G,A,C]2 |!pp! [F,A,D]2 [F,A,D]2 | [F,CD]2 [F,CD]2 | [D,G,B,D]2 [D,G,B,D]2 | %17
 [D,CD]2 [D,CD]2 | [G,B,E]2 [G,B,E]2 | [G,B,D]2 [G,B,D]2 | [G,CG]2 [G,CG]2 | [G,B,G]2 [G,B,D]2 | %22
 [G,A,E]2 [G,A,E]2 | [F,A,D]2 [F,A,D]2 | [G,B,D]2 [G,B,D]2 | [E,A,^C]2 [E,A,C]2 | %26
!p! [D,A,D]2 [D,A,D]2 | [D,A,D]2 [D,A,D]2 | [G,CG]2 [G,CG]2 | [A,DF]2 [CDF]2 | [B,DG]2 [B,DG]2 | %31
 [B,DF]2 [B,D=F]2 | [G,CE]2 [G,CE]2 | [D,F,A,D]2 [D,F,A,D]2 | [D,G,D]2 [D,G,D]2 | %35
 [G,B,E]2 [G,B,E]2 | [E,G,C]2 [E,G,C]2 | [D,F,C]2 [D,F,C]2 | [D,G,B,]2 [D,G,B,]2 | %39
 [D,G,B,]2 [D,G,B,]2 || [D,B,D]2 [D,B,D]2 | [D,CD]2 [D,CD]2 | [G,B,G]2 [G,B,G]2 | %43
 [G,B,G]2 [G,DG]2 | [G,EG]2 [CEG]2 | [B,DG]2 [B,DG]2 | [A,^CG]2 [A,CG]2 | [A,DF]2 [A,DF]2 | %48
 [B,DG]2 [B,DG]2 | [A,EA]2 [A,^CA]2 | [A,DA]2 [A,DA]2 | [B,DF]2 [B,DF]2 | [B,DG]2 [G,B,D]2 | %53
 [G,A,^C]2 [G,A,C]2 | [F,A,D]2"^dim." [F,A,D]2 | [F,A,CD]2 [F,A,CD]2 | [G,B,D]2 [G,B,D]2 | %57
 [D,CD]2 [D,CD]2 | [G,B,G]2 [G,B,G]2 | [G,B,G]2 [G,B,G]2 | [G,CG]2 [G,CG]2 | [B,DG]2 [B,DG]2 | %62
 [A,EG]2 [A,EG]2 | [A,DF]2 [A,DF]2 | [B,DG]2 [B,DG]2 | [A,EA]2 [A,^CA]2 | [A,DA]2 [A,DA]2 | %67
 [A,DA]2 [A,DA]2 | [G,CG]2 [G,CG]2 | [A,DF]2 [CDF]2 | [B,DG]2 [B,DG]2 | [G,DF]2 [G,D=F]2 | %72
 [G,CE]2 [CEG]2 | [A,DA]2 [A,DA]2 | [G,DG]2 [G,DG]2 | [B,EG]2 [B,EG]2 | [CEG]2 [CEG]2 | %77
 [CDF]2 [CDF]2 | [B,DG]2 [B,DG]2 | [B,DG]2 z2 |] %80
V:3
!pp! G,,2 G,,2 | A,,2 A,,2 | B,,2 B,,2 | B,,2 B,,2 | C,2 C,2 | D,2 D,2 | E,2 E,2 | D,2 D,2 | %8
 G,,2 G,,2 | G,,2 G,,2 |!p! F,,2 F,,2 | G,,2 G,,2 | E,,2 E,,2 | A,,2 A,,2 |!pp! D,2 D,2 | D,2 D,2 | %16
 G,,2 G,,2 | A,,2 A,,2 | B,,2 B,,2 | B,,2 B,,2 | E,2 E,2 | D,2 D,2 | ^C,2 C,2 | D,2 D,2 | %24
 G,,2 G,,2 | G,,2 G,,2 |!p! F,,2 F,,2 | F,,2 F,,2 | E,2 E,2 | D,2 D,2 | G,2 G,2 | G,,2 G,,2 | %32
 C,2 C,2 | C,2 C,2 | B,,2 B,,2 | E,,2 E,,2 | A,,2 A,,2 | D,,2 D,,2 | G,,2 G,,2 | G,,2 G,,2 || %40
 G,2 G,2 | A,2 A,,2 | B,,2 D,2 | G,2 B,2 | C2 C,2 | D,2 D,2 | E,2 E,2 | D,2 D,2 | G,,2 G,,2 | %49
 G,2 G,2 | F,2 F,2 | B,2 B,2 | E,2 E,2 | A,2 A,,2 | D,2 D,2 | D,2 D,2 | G,,2 G,,2 | A,,2 A,,2 | %58
 B,,2 B,,2 | B,,2 B,,2 | E,2 E,2 | D,2 D,2 | ^C,2 C,2 | D,2 D,2 | G,2 G,2 | G,,2 G,,2 | F,,2 F,,2 | %67
 F,2 F,2 | E,2 E,2 | D,2 D,2 | G,,2 G,,2 | G,2 G,2 | C,2 C,2 | C2 C2 | B,2 B,2 | E,2 E,2 | %76
 A,2 A,2 | D,2 D,2 | G,,2 G,2 | G,,2 z2 |] %80

